X: 7137
T: Christy Barry's
R: jig
M: 6/8
K: Gmajor
M:12/8
|:D|G2 A B2 G ABB d2 e|ged BGG ABA GED|
G2 A B/c/BG ABB d2 e|ged BGG AGG G2-:|
|:G|g3 g/a/g/f/g agf d/e/de|ged BGG ABA GED|
G2 A B/c/BG ABB d2 e|ged BGG AGG G2-:|

